X: 071271
T: Glin Cottage [a]
S: "Johnny O'Leary of Sliabh Luachra" (#237)
Z: B.Black
L: 1/8
M: 2/4
Q: 270
R: polka
K: Edor
ef/e/ Bd|e/f/e/d/ Bd|e2 B/c/B/A/|G>A Bd|
eA Bd|e/f/e/d/ Bd|ea g/f/e/d/|BA A2 :|
e>d ef/g/|ae f/e/d/B/|d>c de/f/|ge f/e/d/B/|
e>d ef/g/|ae f/e/d/f/|ea e/f/e/d/|BA A2 :|
